X:1
T:[ID 1-110]
T:[ID 1-110]
T:Bezeichnung standardisiert: Menuett Menuet 1
T:Urheber unbekannt Datum in der hier transkribierten schriftlichen Quelle: vermutlich vor 1767
C:Urheber unbekannt
C:Datum in der hier transkribierten schriftlichen Quelle: vermutlich vor 1767
L:1/8
M:3/4
K:D
V:1 treble 
V:1
 D2 d2 d2 | d4 cd | e2 G2 G2 | G4 FE | D2 f2 f2 | f3 DCB, | C2 e2 e2 | e3 CB,A, | B,2 d2 d2 | %9
 d2 cBcA | BdcBA^G | A6 :: A2 a2 a2 | a4 gf | A2 g2 g2 | g2 (3efg f2 |"^O)" G,2 B2 B2 | gecA d2 | %18
"^O)" G,2 B2 B2 | gecA d2 | BG F2 GE | D6 :| %22

